Adwaita++/emblems/16/emblem-generic.svg

<svg fill="none" height="16" viewBox="0 0 16 16" width="16" xmlns="http://www.w3.org/2000/svg">
  <path d="m13.6 1h-11.2c-.7732 0-1.4.6268-1.4 1.4v11.2c0 .7732.6268 1.4 1.4 1.4h11.2c.7732 0 1.4-.6268 1.4-1.4v-11.2c0-.7732-.6268-1.4-1.4-1.4z" fill="#b5835a"/>
  <path d="m7.14492 3.17789c-.14715.0139-.25962.13736-.25977.28516v2.79687l-2.73437-1.50195c-.13961-.0768-.31506-.02504-.39063.11524l-.72461 1.3457c-.07621.14064-.02258.31645.11914.39062l2.68164 1.39649-2.68164 1.4043c-.14173.07418-.19535.24997-.11914.39062l.72461 1.34566c.07629.1408.25304.1918.39258.1133l2.73242-1.5156v2.793c.00086.1579.12922.2853.28711.2851h1.64258c.15789.0002.28625-.1272.28711-.2851v-2.79495l2.74415 1.51755c.1391.0771.3144.0263.3906-.1133l.7266-1.34566c.0762-.14065.0226-.31645-.1192-.39062l-2.6699-1.4043 2.6211-1.37305.0039-.00195c.0617-.02026.1148-.06089.1504-.11523.0108-.01597.02-.03298.0273-.05078.0037-.00894.007-.01807.0098-.02735.0007-.00195.0014-.0039.002-.00586 0-.0013 0-.00261 0-.00391.0023-.00773.0043-.01554.0059-.02344.0016-.00776.0029-.01557.0039-.02343.0001-.00195.0001-.00391 0-.00586.0012-.0189.0006-.03788-.002-.05664-.0059-.05111-.0254-.09968-.0566-.14063l-.7032-1.30468c-.0756-.14028-.251-.19204-.3906-.11524l-2.74415 1.50391v-2.79883c-.00087-.15789-.12922-.28537-.28711-.28516h-1.64258c-.00911-.00043-.01823-.00043-.02734 0z" fill="#fff"/>
</svg>

<svg xmlns="http://www.w3.org/2000/svg" fill="none" width="16" height="16" viewBox="0 0 16 16">
 <path fill="url(#paint0_linear)" d="M13.6 1H2.4C1.6268 1 1 1.6268 1 2.4V13.6C1 14.3732 1.6268 15 2.4 15H13.6C14.3732 15 15 14.3732 15 13.6V2.4C15 1.6268 14.3732 1 13.6 1Z"/>
 <path fill="#fff" d="M7.14492 3.17789C6.99777 3.19179 6.8853 3.31525 6.88515 3.46305V6.25992L4.15078 4.75797C4.01117 4.68117 3.83572 4.73293 3.76015 4.87321L3.03554 6.21891C2.95933 6.35955 3.01296 6.53536 3.15468 6.60953L5.83632 8.00602L3.15468 9.41032C3.01295 9.4845 2.95933 9.66029 3.03554 9.80094L3.76015 11.1466C3.83644 11.2874 4.01319 11.3384 4.15273 11.2599L6.88515 9.7443V12.5373C6.88601 12.6952 7.01437 12.8226 7.17226 12.8224H8.81484C8.97273 12.8226 9.10109 12.6952 9.10195 12.5373V9.74235L11.8461 11.2599C11.9852 11.337 12.1605 11.2862 12.2367 11.1466L12.9633 9.80094C13.0395 9.66029 12.9859 9.48449 12.8441 9.41032L10.1742 8.00602L12.7953 6.63297L12.7992 6.63102C12.8609 6.61076 12.914 6.57013 12.9496 6.51579C12.9604 6.49982 12.9696 6.48281 12.9769 6.46501C12.9806 6.45607 12.9839 6.44694 12.9867 6.43766C12.9874 6.43571 12.9881 6.43376 12.9887 6.4318C12.9887 6.4305 12.9887 6.42919 12.9887 6.42789C12.991 6.42016 12.993 6.41235 12.9946 6.40445C12.9962 6.39669 12.9975 6.38888 12.9985 6.38102C12.9986 6.37907 12.9986 6.37711 12.9985 6.37516C12.9997 6.35626 12.9991 6.33728 12.9965 6.31852C12.9906 6.26741 12.9711 6.21884 12.9399 6.17789L12.2367 4.87321C12.1611 4.73293 11.9857 4.68117 11.8461 4.75797L9.10195 6.26188V3.46305C9.10108 3.30516 8.97273 3.17768 8.81484 3.17789H7.17226C7.16315 3.17746 7.15403 3.17746 7.14492 3.17789V3.17789Z"/>
 <defs>
  <linearGradient id="paint0_linear" x1="1" x2="15" y1="8" y2="8" gradientUnits="userSpaceOnUse">
   <stop stop-color="#B5835A"/>
  </linearGradient>
 </defs>
</svg>
